X:1
T:James Gibb editions
T:Ring the bells, the Christmas bells - Barnby
%%score [ ( 1 2 ) ( 3 4 5 ) ]
L:1/8
Q:1/4=120
M:4/4
K:D
V:1 treble nm="Midi_74"
V:2 treble 
V:3 bass nm="Midi_74"
V:4 bass 
V:5 bass 
V:1
"^Carillon (77. 77. D, with chorus)""^Ring the bells, the Christmas bells""^Joseph Barnby\n(1838-96)""^Charles Lewis Hutchins\n(1838-1920)" A3 A A2"^1" A2 | %1
w: |
 B3 B B2 || B2 | B2 B2 c2 d2 | e4 A4 || d3 d c2 B2 |[M:4/4] e2 c2 A2 || F2 | E2 A2 c2 Bc | B4 A4 || %10
w: |||||||||
 A3 A A2 A2 | A3 A A2 || A2 | A2 =c2 B2 A2 | A4 B4 || B3 B B2 B2 | B3 B B2 || B2 | e2 d2 c2 B2 | %19
w: |||||||||
 B4 A4 ||"^Chorus" D3 d c2 B2 | A2 G2 F2 || E2 | D2 d2 c2 A2 | (B2!<(! F2) (G2 A2)!<)! || %25
w: |Ring the mer- ry|Christ- mas bells~;|Chime|out the won- drous|sto\- * ry; *|
!ff! F3 F A2 A2 | !^!d2"^1" !^!d2[Q:1/4=60] !fermata!e2 ||[Q:1/4=108] A2 | d2 A2 G2 D2 | (F4 E4) | %30
w: Glo- ry~be * to|God on high,|For|ev- er- more be|glo\- *|
 D8 || G4 F4 |] %32
w: ry.|A- men.|
V:2
 F3 F F2 F2 | F3 F G2 || A2 | G2 G2 G2 G2 | G4 E4 || A3 A A2 E2 |[M:4/4] E2 E2 F2 || D2 | %8
w: Ring the bells, the|Christ- mas bells;|Chime|out the won- drous|sto- ry;|First in song on|an- gels' tongues|It|
w: Wise men has- tened|from the East|To|bring their rich- est|trea- sure,|Gold and myrrh and|fran- kin- cense|And|
w: Earth- ly crowns were|not for Him;|He|came, God's love re-|veal- ing;|On the Cross He|died for us,|His|
 C2 E2 A2 ^G2 | ^G4 A4 || A3 A A2 A2 | E3 E E2 || E2 | D2 F2 F2 F2 | F4 G4 || B3 B B2 G2 | %16
w: came from realms of|glo- ry;|Peace on earth, good-|will to men,|An-|ge- lic voi- ces|ring- ing|Christ the Lord to|
w: je- wels with- out|mea- sure.|Him they sought, al-|though a King,|They|found in birth- place|low- ly,|There with- in a|
w: blood for- give- ness|seal- ing.|'Tis the Sa- viour|pro- mised long,|Ring|out your loud- est|prai- ses;|Ev- 'ry heart this|
 A3 A A2 || A2 | ^G2 G2 G2 G2 | ^G4 A4 || D3 D D2 D2 | B,2 B,2 C2 || C2 | D2 d2 c2 A2 | %24
w: earth has come,|His|glo- rious mes- sage|bring- ing.|||||
w: man- ger lay|The|Babe so pure and|ho- ly.|||||
w: hap- py day|Its|grate- ful an- thems|rai- ses.|||||
 (B2 F2) (G2 E2) || F3 F A2 A2 | !^!F2 !^!G2 G2 || E2 | A,2 D2 D2 D2 | (D4 C4) | D8 || D4 D4 |] %32
w: ||||||||
w: ||||||||
w: ||||||||
V:3
 D3 D D2 D2 | D3 D D2 || ^D2 | E2 B,2 E2 D2 | D4 C4 || D3 D E2 ^G,2 |[M:4/4] A,2 A,2 A,2 || A,2 | %8
 B,2 C2 E2 DE | D4 C4 || A,3 A, A,2 A,2 | C3 C C2 || C2 | D2 A,2 B,2 x2 | =C4 B,4 || %15
 B,3 B, B,2 D2 | ^D3 D D2 || ^D2 | E2 B,2 C2 D2 |"^Org/Ped." D4 C4 || A,3 A, A,2 A,2 | %21
 B,2 B,2"^1" A,2 || G,2 | E,2 F,2 G,2 A,2 | (B,2 C2) (D2 E2) || F3 F E2 E2 | !^!D2 !^!D2 C2 || C2 | %28
 D2 =C2 B,2 G,2 | (A,4 G,4) | F,8 || B,4 A,4 |] %32
V:4
 D,3 D, D2 C2 | B,2 A,2 G,2 || F,2 | E,2 D,2 C,2 B,,2 | A,,4 (A,2 G,2) || F,3 F, E,2 D,2 | %6
[M:4/4] C,2 C,2 D,2 || D,2 | E,2 E,2 E,2 E,2 | E,4 A,4 || A,3 A, A,2 A,2 | G,3 G, G,2 || G,2 | %13
 F,2 D,2 D,2 D,2 | G,4 G,4 || B,3 B, B,2 G,2 | F,3 F, F,2 || F,2 | E,2 E,2 E,2 E,2 | A,6- G,2 || %20
 F,3 F, F,2 F,2 | E,2 E,2 A,,2 || A,,2 | D,2 D,2 E,2 F,2 | (G,2 A,2) (B,2 C2) || D3 D C2 C2 | %26
 !^!B,2 !^!B,2 !fermata!A,2 || G,2 | F,2 F,,2 G,,2 B,,2 | A,,8 | D,8 || G,,4 D,4 |] %32
V:5
 x8 | x6 || x2 | x8 | x8 || x8 |[M:4/4] x6 || x2 | x8 | x8 || x8 | x6 || x2 | x8 | x8 || x8 | x6 || %17
 x2 | x8 | A,,8- || A,,8 | A,,4 x2 || x2 | x8 | x8 || x8 | x6 || x2 | x8 | x8 | x8 || x8 |] %32

